X:049
T: Sheelina Gra Will You Be Mine
N: O'Farrell's Pocket Companion v.1 (Sky ed. p.39)
N: Irish = Sile an Ghradh (Sheila [My] Love)
M: 6/8
L: 1/8
R: jig
Q: 320
K: Am
z|EAA AGA|BGG GAB|cdc BAG|AGE E2 :|
c/d/|e>fe ded|BGG GBd|efe dec|BGE c2d|
efe ded/c/|BGG GAB|cdc BAG|AGE E2 :|
